X:630
T: IK UND MYN LYSBET
N: E0577
O: Europa, Mitteleuropa, Deutschland, Ditmarsch
R: Liebes - Lied
M: 3/8
L: 1/8
K: D
 | DFA | DFA | BBB | A2z |
BBB | A2A | GGG | FF
F | EEE | D2z

@@@ Tune index: 4280
